src/icons/edit.svg

<svg xmlns="http://www.w3.org/2000/svg"  viewBox="0 0 64 64" width="32px" height="32px"><path d="M 56.197266 5.0488281 C 55.638266 5.0880781 55.070047 5.3420625 54.623047 5.7890625 L 52.751953 7.6386719 L 56.435547 11.347656 L 58.273438 9.4648438 C 59.192437 8.4978437 59.265656 7.1660469 58.347656 6.2480469 L 57.71875 5.5957031 C 57.30775 5.1847031 56.756266 5.0095781 56.197266 5.0488281 z M 50.972656 9.4140625 L 31.228516 29.183594 L 29.052734 33.970703 C 28.810734 34.526703 29.440094 35.1545 29.996094 34.9375 L 34.951172 32.857422 L 54.695312 13.113281 L 50.972656 9.4140625 z M 17.021484 11.021484 C 13.712484 11.021484 11.021484 13.712484 11.021484 17.021484 L 11.021484 46.978516 C 11.021484 50.287516 13.712484 52.978516 17.021484 52.978516 L 46.978516 52.978516 C 50.287516 52.978516 52.978516 50.287516 52.978516 46.978516 L 52.978516 19.072266 L 48.980469 23.072266 L 48.980469 46.978516 C 48.980469 48.081516 48.083469 48.978516 46.980469 48.978516 L 17.021484 48.978516 C 15.918484 48.978516 15.021484 48.081516 15.021484 46.978516 L 15.021484 17.021484 C 15.021484 15.918484 15.918484 15.021484 17.021484 15.021484 L 41.134766 15.021484 L 45.128906 11.021484 L 17.021484 11.021484 z"/></svg>

<svg role="img" viewBox="0 0 64 64" xmlns="http://www.w3.org/2000/svg"><path d="M56.197 5.049a2.497 2.497 0 0 0-1.574.74l-1.871 1.85 3.684 3.709 1.837-1.883c.92-.967.993-2.299.075-3.217l-.63-.652c-.41-.411-.962-.586-1.52-.547m-5.224 4.365L31.23 29.184l-2.176 4.787c-.242.556.387 1.184.943.967l4.955-2.08 19.744-19.745zM17.02 11.021c-3.309 0-6 2.691-6 6V46.98c0 3.309 2.691 6 6 6h29.96c3.309 0 6-2.691 6-6V19.072l-3.999 4V46.98c0 1.103-.897 2-2 2h-29.96c-1.103 0-2-.897-2-2V17.02c0-1.103.897-2 2-2h24.114l3.994-4z"/></svg>
